X:7
T:Orange and Blue (Brochan Lom)
M:4/4
L:1/8
R:Strathspey
K:D
a>g|"D"f<d d2 A<d d2|"D"f>ga>f d2 e>f|"A"g<e e2 B<e e2|"A"c>de>c A2 a>g|
!
"D"f<d d2 A<d d2|"D"f>ga>f d2 g>a|"G"b>g"D"a>f "A"g>e"D"f>d|"A"c>A (3ABc
 "D"d2||!
a>g|"D"f<a a2 f<a a2|"Bm"f>ga>f d2 e>f|"Em"g<b b2 g<b b2|"Em"g>ab>g e2 f
>
g|!
"D"f<a a2 f<a a2|"Bm"f>ga>f d2 g>a|"G"b>g"D"a>f "A"g>e"D"f>d|"A"c>A (3AB
c
 "D"d2||
